build/assets/how-to-care-icon-3.svg

<svg width="68" height="68" viewBox="0 0 68 68" fill="none" xmlns="http://www.w3.org/2000/svg">
<path d="M37.1875 28.6875C37.1875 34 34 41.4375 34 41.4375M35.0625 30.8125C35.0625 30.8125 38.25 22.3125 30.8125 15.9375C23.375 9.56253 11.6875 11.6875 11.6875 11.6875C11.6875 11.6875 11.6875 20.1875 18.0625 26.5625C24.4375 32.9375 35.0625 30.8125 35.0625 30.8125ZM39.3125 24.4375C39.3125 24.4375 36.125 15.9375 43.5625 9.56253C51 3.18753 62.6875 5.31253 62.6875 5.31253C62.6875 5.31253 62.6875 13.8125 56.3125 20.1875C49.9375 26.5625 39.3125 24.4375 39.3125 24.4375ZM22.3125 39.3125H49.9375C49.9375 39.3125 52.0625 58.4375 36.125 58.4375C20.1875 58.4375 22.3125 39.3125 22.3125 39.3125Z" stroke="url(#paint0_linear_23_180)" stroke-width="4" stroke-linecap="round" stroke-linejoin="round"/>
<defs>
<linearGradient id="paint0_linear_23_180" x1="11.6875" y1="31.705" x2="62.6875" y2="31.705" gradientUnits="userSpaceOnUse">
<stop stop-color="#2AF598"/>
<stop offset="1" stop-color="#009EFD"/>
</linearGradient>
</defs>
</svg>

<svg xmlns="http://www.w3.org/2000/svg" width="68" height="68" fill="none"><path stroke="url(#a)" stroke-linecap="round" stroke-linejoin="round" stroke-width="4" d="M37.188 28.688C37.188 34 34 41.438 34 41.438m1.063-10.626s3.187-8.5-4.25-14.875c-7.438-6.374-19.125-4.25-19.125-4.25s0 8.5 6.374 14.876c6.375 6.375 17 4.25 17 4.25Zm4.25-6.375s-3.188-8.5 4.25-14.874C51 3.188 62.686 5.313 62.686 5.313s0 8.5-6.374 14.875c-6.376 6.375-17 4.25-17 4.25Zm-17 14.875h27.625s2.124 19.126-13.813 19.126c-15.938 0-13.813-19.126-13.813-19.126Z"/><defs><linearGradient id="a" x1="11.688" x2="62.688" y1="31.705" y2="31.705" gradientUnits="userSpaceOnUse"><stop stop-color="#2AF598"/><stop offset="1" stop-color="#009EFD"/></linearGradient></defs></svg>
